dynamics/images/circular2.svg

<svg xmlns="http://www.w3.org/2000/svg" width="214.6" height="156.45" style="width:214.60000610351562px;height:156.4499969482422px;background:0 0;fill:none"><svg xmlns="http://www.w3.org/2000/svg"/><svg xmlns="http://www.w3.org/2000/svg" class="role-diagram-draw-area"><g class="shapes-region" style="stroke:#000;fill:none"><g class="composite-shape"><path d="m107.3 7 101.5 41.72-101.5 41.73L5.8 48.72Z" class="real" style="stroke-width:1;stroke:#000;fill:#f5eaea;fill-opacity:1"/></g><g class="composite-shape"><path stroke="none" d="M53.9 48.72c0-5.82 4.03-11.19 10.81-15.5l42.59 15.5Z" class="real" style="stroke-width:1;stroke:none;stroke-opacity:1;fill:none;fill-opacity:1"/><path d="M53.9 48.72c0-5.09 3.08-9.84 8.4-13.83" class="real" style="stroke-width:1;stroke:#900;stroke-opacity:1;fill:none;fill-opacity:1"/><path fill="#900" stroke="none" d="M7.14-3.43 0 0l7.14 3.43L4.74 0Z" style="stroke:none;fill:#900;stroke-width:1" transform="rotate(141.13 26.495 28.03)"/></g><g class="composite-shape"><path d="M113.2 132.83v11.94c0 1.77-2.64 3.21-5.9 3.21s-5.9-1.44-5.9-3.21v-11.94m11.8 0c0 1.77-2.64 3.21-5.9 3.21s-5.9-1.44-5.9-3.21c0-1.78 2.64-3.22 5.9-3.22s5.9 1.44 5.9 3.22Z" class="real" style="stroke-width:1;stroke:#000;stroke-opacity:1;fill:#900;fill-opacity:1"/></g><g class="composite-shape"><path d="M53.9 48.72c0-14.18 23.91-25.68 53.4-25.68s53.4 11.5 53.4 25.68c0 14.19-23.91 25.69-53.4 25.69s-53.4-11.5-53.4-25.69Z" class="real" style="stroke-width:1;stroke:#900;stroke-opacity:.5;fill:none;fill-opacity:1"/></g><g class="composite-shape"><path d="M59.8 47.04v6.26c0 .93-2.64 1.68-5.9 1.68S48 54.23 48 53.3v-6.26m11.8 0c0 .93-2.64 1.68-5.9 1.68s-5.9-.75-5.9-1.68 2.64-1.68 5.9-1.68 5.9.75 5.9 1.68Z" class="real" style="stroke-width:1;stroke:#000;stroke-opacity:1;fill:#900;fill-opacity:1"/></g><g class="arrow-line"><path d="m59.8 53.3 47.5-4.58" class="connection real" style="stroke:#000;stroke-width:1;fill:none;fill-opacity:1"/></g><g class="arrow-line"><path d="M107.3 132.45v-27.8" class="connection real" style="stroke:#000;stroke-width:1;fill:none;fill-opacity:1"/></g><g class="arrow-line"><path stroke-dasharray="3" d="M107.3 104.98V48.72" class="connection real" style="stroke:#000;stroke-width:1;fill:none;fill-opacity:1"/></g></g></svg><svg xmlns="http://www.w3.org/2000/svg" xmlns:xlink="http://www.w3.org/1999/xlink" width="213" height="154.85" style="width:213px;height:154.85000610351562px;font-family:Asana-Math,Asana;background:0 0"><path fill="#900" stroke="#900" stroke-width=".095" d="M67.438 36.652c.25 0 .44-.012.75-.048-1.321 1.428-1.821 2.416-1.821 3.606 0 .916.547 1.57 1.309 1.57 1.642 0 3.463-2.938 3.463-4.7 0-.678-.31-1.166-.738-1.166a.55.55 0 0 0-.393.143l-.595.56.131.225a.6.6 0 0 1 .322-.107c.32 0 .511.274.511.75 0 1.761-1.154 3.7-2.201 3.7-.583 0-.952-.499-.952-1.272 0-1.25.464-2.333 1.63-3.785l-.119-.214c-.238.107-.393.143-.726.143s-.833-.024-1.178-.06l-.143-.011c-.071-.012-.13-.012-.143-.012a.85.85 0 0 0-.38.083c-.167.321-.298.75-.453 1.404h.262l.203-.5c.083-.202.32-.333.606-.333.393 0 .203.024.655.024Z"/></svg></svg>

<svg xmlns="http://www.w3.org/2000/svg" xmlns:xlink="http://www.w3.org/1999/xlink" x="0" y="0" width="214.60000610351562" height="156.4499969482422" style="
        width:214.60000610351562px;
        height:156.4499969482422px;
        background: transparent;
        fill: none;
">
        <svg xmlns="http://www.w3.org/2000/svg"/>
        
        <svg xmlns="http://www.w3.org/2000/svg" class="role-diagram-draw-area"><g class="shapes-region" style="stroke: black; fill: none;"><g class="composite-shape"><path class="real" d=" M107.3,7 L208.8,48.72 L107.3,90.45 L5.8,48.72 Z" style="stroke-width: 1; stroke: rgb(0, 0, 0); fill: rgb(245, 234, 234); fill-opacity: 1;"/></g><g class="composite-shape"><path class="real" d=" M53.9,48.72 C53.9,48.72 53.9,48.72 53.9,48.72 C53.9,42.9 57.93,37.53 64.71,33.22 L107.3,48.72 Z" style="stroke-width: 1; stroke: none; stroke-opacity: 1; fill: none; fill-opacity: 1;"/><path class="real" d=" M53.9,48.72 C53.9,48.72 53.9,48.72 53.9,48.72 C53.9,43.63 56.98,38.88 62.3,34.89" style="stroke-width: 1; stroke: rgb(153, 0, 0); stroke-opacity: 1; fill: none; fill-opacity: 1;"/><g stroke="none" fill="rgb(153,0,0)" fill-opacity="1" transform="matrix(-0.778571842519217,0.6275554844284541,-0.6275554844284541,-0.778571842519217,64.71358628478153,33.224808311237084)" style="stroke: none; fill: rgb(153, 0, 0); stroke-width: 1;"><path d=" M7.14,-3.43 L0,0 L7.14,3.43 L4.74,0 Z"/></g></g><g class="composite-shape"><path class="real" d=" M113.2,132.83 L113.2,144.77 C113.2,146.54 110.56,147.98 107.3,147.98 C104.04,147.98 101.4,146.54 101.4,144.77 L101.4,132.83 M113.2,132.83 C113.2,134.6 110.56,136.04 107.3,136.04 C104.04,136.04 101.4,134.6 101.4,132.83 C101.4,131.05 104.04,129.61 107.3,129.61 C110.56,129.61 113.2,131.05 113.2,132.83 Z" style="stroke-width: 1; stroke: rgb(0, 0, 0); stroke-opacity: 1; fill: rgb(153, 0, 0); fill-opacity: 1;"/></g><g class="composite-shape"><path class="real" d=" M53.9,48.72 C53.9,34.54 77.81,23.04 107.3,23.04 C136.79,23.04 160.7,34.54 160.7,48.72 C160.7,62.91 136.79,74.41 107.3,74.41 C77.81,74.41 53.9,62.91 53.9,48.72 Z" style="stroke-width: 1; stroke: rgb(153, 0, 0); stroke-opacity: 0.5; fill: none; fill-opacity: 1;"/></g><g class="composite-shape"><path class="real" d=" M59.8,47.04 L59.8,53.3 C59.8,54.23 57.16,54.98 53.9,54.98 C50.64,54.98 48,54.23 48,53.3 L48,47.04 M59.8,47.04 C59.8,47.97 57.16,48.72 53.9,48.72 C50.64,48.72 48,47.97 48,47.04 C48,46.11 50.64,45.36 53.9,45.36 C57.16,45.36 59.8,46.11 59.8,47.04 Z" style="stroke-width: 1; stroke: rgb(0, 0, 0); stroke-opacity: 1; fill: rgb(153, 0, 0); fill-opacity: 1;"/></g><g class="arrow-line"><path class="connection real" stroke-dasharray="" d="  M59.8,53.3 L107.3,48.72" style="stroke: rgb(0, 0, 0); stroke-width: 1; fill: none; fill-opacity: 1;"/></g><g class="arrow-line"><path class="connection real" stroke-dasharray="" d="  M107.3,132.45 L107.3,104.65" style="stroke: rgb(0, 0, 0); stroke-width: 1; fill: none; fill-opacity: 1;"/></g><g class="arrow-line"><path class="connection real" stroke-dasharray="3" d="  M107.3,104.98 L107.3,48.72" style="stroke: rgb(0, 0, 0); stroke-width: 1; fill: none; fill-opacity: 1;"/></g><g/></g><g/><g/><g/></svg>
        <svg xmlns="http://www.w3.org/2000/svg" xmlns:xlink="http://www.w3.org/1999/xlink" width="213" height="154.85000610351562" style="width:213px;height:154.85000610351562px;font-family:Asana-Math, Asana;background:transparent;"><g><g><g><g transform="matrix(1,0,0,1,65.4625244140625,41.65)"><path transform="matrix(0.0119,0,0,-0.0119,0,0)" d="M166 420C187 420 203 421 229 424C118 304 76 221 76 121C76 44 122 -11 186 -11C324 -11 477 236 477 384C477 441 451 482 415 482C402 482 390 478 382 470L332 423L343 404C352 410 361 413 370 413C397 413 413 390 413 350C413 202 316 39 228 39C179 39 148 81 148 146C148 251 187 342 285 464L275 482C255 473 242 470 214 470C186 470 144 472 115 475L103 476C97 477 92 477 91 477C79 477 70 475 59 470C45 443 34 407 21 352L43 352L60 394C67 411 87 422 111 422C144 422 128 420 166 420Z" stroke="rgb(153,0,0)" stroke-opacity="1" stroke-width="8" fill="rgb(153,0,0)" fill-opacity="1"></path></g></g></g></g></svg>
</svg>
